Papirus/64x64/apps/solaar.svg

<?xml version="1.0" encoding="UTF-8" standalone="no"?>
<svg
   id="_图层_1"
   version="1.1"
   viewBox="0 0 64 64" width="64" height="64"
   sodipodi:docname="solaar.svg"
   xml:space="preserve"
   inkscape:version="1.4 (e7c3feb100, 2024-10-09)"
   xmlns:inkscape="http://www.inkscape.org/namespaces/inkscape"
   xmlns:sodipodi="http://sodipodi.sourceforge.net/DTD/sodipodi-0.dtd"
   xmlns:xlink="http://www.w3.org/1999/xlink"
   xmlns="http://www.w3.org/2000/svg"
   xmlns:svg="http://www.w3.org/2000/svg"><sodipodi:namedview
     id="namedview26"
     pagecolor="#505050"
     bordercolor="#eeeeee"
     borderopacity="1"
     inkscape:showpageshadow="0"
     inkscape:pageopacity="0"
     inkscape:pagecheckerboard="0"
     inkscape:deskcolor="#505050"
     inkscape:zoom="10.6875"
     inkscape:cx="32"
     inkscape:cy="32"
     inkscape:window-width="1920"
     inkscape:window-height="939"
     inkscape:window-x="0"
     inkscape:window-y="34"
     inkscape:window-maximized="1"
     inkscape:current-layer="_图层_1" /><!-- Generator: Adobe Illustrator 29.0.1, SVG Export Plug-In . SVG Version: 2.1.0 Build 192)  --><defs
     id="defs6"><style
       id="style1">
      .st0 {
        fill-opacity: .5;
      }

      .st0, .st1, .st2, .st3, .st4, .st5, .st6, .st7 {
        fill: #fff;
      }

      .st8 {
        fill: #133c9a;
      }

      .st2, .st9 {
        display: none;
      }

      .st3 {
        fill-opacity: .2;
      }

      .st4 {
        fill-opacity: .9;
      }

      .st10 {
        fill: #3370ff;
      }

      .st11 {
        fill: url(#_未命名的渐变_3);
      }

      .st12 {
        fill: url(#_未命名的渐变);
      }

      .st5 {
        fill-opacity: .3;
      }

      .st6 {
        fill-opacity: 0;
      }

      .st7 {
        fill-opacity: .7;
      }

      .st13 {
        fill: #00d6b9;
      }

      .st14 {
        fill: url(#_未命名的渐变_2);
      }
    </style><radialGradient
       id="_未命名的渐变"
       data-name="未命名的渐变"
       cx="123.9"
       cy="-40.2"
       fx="123.9"
       fy="-40.2"
       r="59.4"
       gradientTransform="translate(-26.8 25.5) scale(.6 -.7)"
       gradientUnits="userSpaceOnUse"><stop
         offset="0"
         stop-color="#db202e"
         id="stop1" /><stop
         offset="1"
         stop-color="#e01b24"
         id="stop2" /></radialGradient><radialGradient
       id="_未命名的渐变_2"
       data-name="未命名的渐变 2"
       cx="67.6"
       cy="26.8"
       fx="67.6"
       fy="26.8"
       r="105.2"
       gradientTransform="translate(-26.6 25.3) scale(.6 -.7)"
       gradientUnits="userSpaceOnUse"><stop
         offset="0"
         stop-color="#ffb648"
         id="stop3" /><stop
         offset="1"
         stop-color="#ff7800"
         stop-opacity="0"
         id="stop4" /></radialGradient><radialGradient
       id="_未命名的渐变_3"
       data-name="未命名的渐变 3"
       cx="61.7"
       cy="18.6"
       fx="61.7"
       fy="18.6"
       r="68"
       gradientTransform="translate(-26.8 25.8) scale(.6 -.7)"
       gradientUnits="userSpaceOnUse"><stop
         offset="0"
         stop-color="#c64600"
         id="stop5" /><stop
         offset="1"
         stop-color="#a51d2d"
         id="stop6" /></radialGradient><linearGradient
       id="linearGradient1261"><stop
         style="stop-color:#4f4f4f"
         offset="0"
         id="stop1-7" /><stop
         style="stop-color:#3f3f3f"
         offset="1"
         id="stop2-0" /></linearGradient><linearGradient
       id="linearGradient1263"
       x1="34.241"
       x2="37.169"
       y1="38.945"
       y2="30.342"
       gradientTransform="matrix(1.3919157,0,0,1.3888889,-1.321022,-0.4865665)"
       gradientUnits="userSpaceOnUse"
       xlink:href="#linearGradient1261" /></defs><path
     class="st1"
     d="M47.5,64.1H13.8c-7.6,0-13.8-6.3-13.8-13.8V13.7C0,6.2,6.2,0,13.7,0h36.6c7.5,0,13.7,6.2,13.7,13.7v36.6c0,7.5-6.2,13.7-13.7,13.7h-2.9.1Z"
     id="path6"
     style="fill:#029499;fill-opacity:1" /><g
     id="g26"
     transform="matrix(1.1403509,0,0,1.1411716,-4.4912281,-4.637786)"><path
       style="opacity:0.2"
       d="m 24.597656,14.179376 -5.195312,3 4.714844,8.164062 a 11,11 0 0 0 -2.689454,4.65625 H 12 v 6 h 9.419922 a 11,11 0 0 0 2.691406,4.666016 L 19.402344,48.82 l 5.195312,3 4.716797,-8.167968 A 11,11 0 0 0 32,43.999688 a 11,11 0 0 0 2.689453,-0.34375 l 4.712891,8.164062 5.195312,-3 -4.714844,-8.164062 a 11,11 0 0 0 2.689454,-4.65625 H 52 v -6 h -9.419922 a 11,11 0 0 0 -2.691406,-4.666016 l 4.708984,-8.154296 -5.195312,-3 -4.716797,8.167968 A 11,11 0 0 0 32,21.999688 11,11 0 0 0 29.310547,22.343438 Z M 32,25.999688 a 7,7 0 0 1 7,7 7,7 0 0 1 -7,7 7,7 0 0 1 -7,-7 7,7 0 0 1 7,-7 z"
       id="path2" /><path
       style="fill:#ffffff"
       d="m 24.597656,13.179688 -5.195312,3 4.714844,8.164062 A 11,11 0 0 0 21.427734,29 H 12 v 6 h 9.419922 a 11,11 0 0 0 2.691406,4.666016 l -4.708984,8.154296 5.195312,3 4.716797,-8.167968 A 11,11 0 0 0 32,43 11,11 0 0 0 34.689453,42.65625 l 4.712891,8.164062 5.195312,-3 -4.714844,-8.164062 A 11,11 0 0 0 42.572266,35 H 52 v -6 h -9.419922 a 11,11 0 0 0 -2.691406,-4.666016 l 4.708984,-8.154296 -5.195312,-3 -4.716797,8.167968 A 11,11 0 0 0 32,21 11,11 0 0 0 29.310547,21.34375 Z M 32,25 a 7,7 0 0 1 7,7 7,7 0 0 1 -7,7 7,7 0 0 1 -7,-7 7,7 0 0 1 7,-7 z"
       id="path3" /></g></svg>

<svg xmlns="http://www.w3.org/2000/svg" width="64" height="64" version="1">
 <rect style="opacity:0.2" width="56" height="56" x="4" y="5" rx="16.8" ry="16.8"/>
 <rect style="fill:#029499" width="56" height="56" x="4" y="4" rx="16.8" ry="16.8"/>
 <path style="opacity:0.2" d="m 24.597656,14.179376 -5.195312,3 4.714844,8.164062 a 11,11 0 0 0 -2.689454,4.65625 l -9.427734,0 0,6 9.419922,0 a 11,11 0 0 0 2.691406,4.666016 L 19.402344,48.82 l 5.195312,3 4.716797,-8.167968 A 11,11 0 0 0 32,43.999688 a 11,11 0 0 0 2.689453,-0.34375 l 4.712891,8.164062 5.195312,-3 -4.714844,-8.164062 a 11,11 0 0 0 2.689454,-4.65625 l 9.427734,0 0,-6 -9.419922,0 a 11,11 0 0 0 -2.691406,-4.666016 l 4.708984,-8.154296 -5.195312,-3 -4.716797,8.167968 A 11,11 0 0 0 32,21.999688 11,11 0 0 0 29.310547,22.343438 L 24.597656,14.179376 Z M 32,25.999688 a 7,7 0 0 1 7,7 7,7 0 0 1 -7,7 7,7 0 0 1 -7,-7 7,7 0 0 1 7,-7 z"/>
 <path style="fill:#ffffff" d="M 24.597656 13.179688 L 19.402344 16.179688 L 24.117188 24.34375 A 11 11 0 0 0 21.427734 29 L 12 29 L 12 35 L 21.419922 35 A 11 11 0 0 0 24.111328 39.666016 L 19.402344 47.820312 L 24.597656 50.820312 L 29.314453 42.652344 A 11 11 0 0 0 32 43 A 11 11 0 0 0 34.689453 42.65625 L 39.402344 50.820312 L 44.597656 47.820312 L 39.882812 39.65625 A 11 11 0 0 0 42.572266 35 L 52 35 L 52 29 L 42.580078 29 A 11 11 0 0 0 39.888672 24.333984 L 44.597656 16.179688 L 39.402344 13.179688 L 34.685547 21.347656 A 11 11 0 0 0 32 21 A 11 11 0 0 0 29.310547 21.34375 L 24.597656 13.179688 z M 32 25 A 7 7 0 0 1 39 32 A 7 7 0 0 1 32 39 A 7 7 0 0 1 25 32 A 7 7 0 0 1 32 25 z"/>
 <path style="fill:#ffffff;opacity:0.2" d="M 20.800781 4 C 11.493582 4 4 11.493582 4 20.800781 L 4 21.800781 C 4 12.493582 11.493582 5 20.800781 5 L 43.199219 5 C 52.506418 5 60 12.493582 60 21.800781 L 60 20.800781 C 60 11.493582 52.506418 4 43.199219 4 L 20.800781 4 z"/>
</svg>
